public/order-accepted.svg

<svg width="272" height="127" viewBox="0 0 272 127" fill="none" xmlns="http://www.w3.org/2000/svg">
<path d="M152.439 30.1665V27.3332C152.439 25.8303 151.851 24.3889 150.804 23.3262C149.757 22.2635 148.337 21.6665 146.856 21.6665H124.523C123.042 21.6665 121.622 22.2635 120.575 23.3262C119.528 24.3889 118.939 25.8303 118.939 27.3332V30.1665C116.718 30.1665 114.588 31.062 113.017 32.6561C111.447 34.2502 110.564 36.4122 110.564 38.6665V69.8332C110.564 72.0875 111.447 74.2495 113.017 75.8436C114.588 77.4376 116.718 78.3332 118.939 78.3332H152.439C154.661 78.3332 156.791 77.4376 158.361 75.8436C159.932 74.2495 160.814 72.0875 160.814 69.8332V38.6665C160.814 36.4122 159.932 34.2502 158.361 32.6561C156.791 31.062 154.661 30.1665 152.439 30.1665ZM124.523 27.3332H146.856V38.6665H124.523V27.3332ZM155.231 69.8332C155.231 70.5846 154.937 71.3053 154.413 71.8366C153.89 72.368 153.18 72.6665 152.439 72.6665H118.939C118.199 72.6665 117.489 72.368 116.965 71.8366C116.442 71.3053 116.148 70.5846 116.148 69.8332V38.6665C116.148 37.9151 116.442 37.1944 116.965 36.663C117.489 36.1317 118.199 35.8332 118.939 35.8332V38.6665C118.939 40.1694 119.528 41.6107 120.575 42.6734C121.622 43.7361 123.042 44.3332 124.523 44.3332H146.856C148.337 44.3332 149.757 43.7361 150.804 42.6734C151.851 41.6107 152.439 40.1694 152.439 38.6665V35.8332C153.18 35.8332 153.89 36.1317 154.413 36.663C154.937 37.1944 155.231 37.9151 155.231 38.6665V69.8332Z" fill="#3A3936"/>
<path d="M70.8953 104.126C69.7193 104.126 68.6393 103.85 67.6553 103.298C66.6713 102.746 65.8913 101.984 65.3153 101.012C64.7393 100.028 64.4513 98.918 64.4513 97.682C64.4513 96.458 64.7393 95.36 65.3153 94.388C65.8913 93.404 66.6713 92.636 67.6553 92.084C68.6393 91.532 69.7193 91.256 70.8953 91.256C72.0833 91.256 73.1633 91.532 74.1353 92.084C75.1193 92.636 75.8933 93.404 76.4573 94.388C77.0333 95.36 77.3213 96.458 77.3213 97.682C77.3213 98.918 77.0333 100.028 76.4573 101.012C75.8933 101.984 75.1193 102.746 74.1353 103.298C73.1513 103.85 72.0713 104.126 70.8953 104.126ZM70.8953 101.876C71.6513 101.876 72.3173 101.708 72.8933 101.372C73.4693 101.024 73.9193 100.532 74.2433 99.896C74.5673 99.26 74.7293 98.522 74.7293 97.682C74.7293 96.842 74.5673 96.11 74.2433 95.486C73.9193 94.85 73.4693 94.364 72.8933 94.028C72.3173 93.692 71.6513 93.524 70.8953 93.524C70.1393 93.524 69.4673 93.692 68.8793 94.028C68.3033 94.364 67.8533 94.85 67.5293 95.486C67.2053 96.11 67.0433 96.842 67.0433 97.682C67.0433 98.522 67.2053 99.26 67.5293 99.896C67.8533 100.532 68.3033 101.024 68.8793 101.372C69.4673 101.708 70.1393 101.876 70.8953 101.876ZM81.7161 95.576C82.0401 95.048 82.4601 94.634 82.9761 94.334C83.5041 94.034 84.1041 93.884 84.7761 93.884V96.53H84.1101C83.3181 96.53 82.7181 96.716 82.3101 97.088C81.9141 97.46 81.7161 98.108 81.7161 99.032V104H79.1961V94.028H81.7161V95.576ZM85.8254 98.978C85.8254 97.97 86.0234 97.076 86.4194 96.296C86.8274 95.516 87.3794 94.916 88.0754 94.496C88.7714 94.076 89.5454 93.866 90.3974 93.866C91.0454 93.866 91.6634 94.01 92.2514 94.298C92.8394 94.574 93.3074 94.946 93.6554 95.414V90.68H96.2114V104H93.6554V102.524C93.3434 103.016 92.9054 103.412 92.3414 103.712C91.7774 104.012 91.1234 104.162 90.3794 104.162C89.5394 104.162 88.7714 103.946 88.0754 103.514C87.3794 103.082 86.8274 102.476 86.4194 101.696C86.0234 100.904 85.8254 99.998 85.8254 98.978ZM93.6734 99.014C93.6734 98.402 93.5534 97.88 93.3134 97.448C93.0734 97.004 92.7494 96.668 92.3414 96.44C91.9334 96.2 91.4954 96.08 91.0274 96.08C90.5594 96.08 90.1274 96.194 89.7314 96.422C89.3354 96.65 89.0114 96.986 88.7594 97.43C88.5194 97.862 88.3994 98.378 88.3994 98.978C88.3994 99.578 88.5194 100.106 88.7594 100.562C89.0114 101.006 89.3354 101.348 89.7314 101.588C90.1394 101.828 90.5714 101.948 91.0274 101.948C91.4954 101.948 91.9334 101.834 92.3414 101.606C92.7494 101.366 93.0734 101.03 93.3134 100.598C93.5534 100.154 93.6734 99.626 93.6734 99.014ZM107.943 98.798C107.943 99.158 107.919 99.482 107.871 99.77H100.581C100.641 100.49 100.893 101.054 101.337 101.462C101.781 101.87 102.327 102.074 102.975 102.074C103.911 102.074 104.577 101.672 104.973 100.868H107.691C107.403 101.828 106.851 102.62 106.035 103.244C105.219 103.856 104.217 104.162 103.029 104.162C102.069 104.162 101.205 103.952 100.437 103.532C99.6807 103.1 99.0867 102.494 98.6547 101.714C98.2347 100.934 98.0247 100.034 98.0247 99.014C98.0247 97.982 98.2347 97.076 98.6547 96.296C99.0747 95.516 99.6627 94.916 100.419 94.496C101.175 94.076 102.045 93.866 103.029 93.866C103.977 93.866 104.823 94.07 105.567 94.478C106.323 94.886 106.905 95.468 107.313 96.224C107.733 96.968 107.943 97.826 107.943 98.798ZM105.333 98.078C105.321 97.43 105.087 96.914 104.631 96.53C104.175 96.134 103.617 95.936 102.957 95.936C102.333 95.936 101.805 96.128 101.373 96.512C100.953 96.884 100.695 97.406 100.599 98.078H105.333ZM112.302 95.576C112.626 95.048 113.046 94.634 113.562 94.334C114.09 94.034 114.69 93.884 115.362 93.884V96.53H114.696C113.904 96.53 113.304 96.716 112.896 97.088C112.5 97.46 112.302 98.108 112.302 99.032V104H109.782V94.028H112.302V95.576ZM120.7 98.978C120.7 97.97 120.898 97.076 121.294 96.296C121.702 95.516 122.248 94.916 122.932 94.496C123.628 94.076 124.402 93.866 125.254 93.866C125.998 93.866 126.646 94.016 127.198 94.316C127.762 94.616 128.212 94.994 128.548 95.45V94.028H131.086V104H128.548V102.542C128.224 103.01 127.774 103.4 127.198 103.712C126.634 104.012 125.98 104.162 125.236 104.162C124.396 104.162 123.628 103.946 122.932 103.514C122.248 103.082 121.702 102.476 121.294 101.696C120.898 100.904 120.7 99.998 120.7 98.978ZM128.548 99.014C128.548 98.402 128.428 97.88 128.188 97.448C127.948 97.004 127.624 96.668 127.216 96.44C126.808 96.2 126.37 96.08 125.902 96.08C125.434 96.08 125.002 96.194 124.606 96.422C124.21 96.65 123.886 96.986 123.634 97.43C123.394 97.862 123.274 98.378 123.274 98.978C123.274 99.578 123.394 100.106 123.634 100.562C123.886 101.006 124.21 101.348 124.606 101.588C125.014 101.828 125.446 101.948 125.902 101.948C126.37 101.948 126.808 101.834 127.216 101.606C127.624 101.366 127.948 101.03 128.188 100.598C128.428 100.154 128.548 99.626 128.548 99.014ZM132.9 99.014C132.9 97.982 133.11 97.082 133.53 96.314C133.95 95.534 134.532 94.934 135.276 94.514C136.02 94.082 136.872 93.866 137.832 93.866C139.068 93.866 140.088 94.178 140.892 94.802C141.708 95.414 142.254 96.278 142.53 97.394H139.812C139.668 96.962 139.422 96.626 139.074 96.386C138.738 96.134 138.318 96.008 137.814 96.008C137.094 96.008 136.524 96.272 136.104 96.8C135.684 97.316 135.474 98.054 135.474 99.014C135.474 99.962 135.684 100.7 136.104 101.228C136.524 101.744 137.094 102.002 137.814 102.002C138.834 102.002 139.5 101.546 139.812 100.634H142.53C142.254 101.714 141.708 102.572 140.892 103.208C140.076 103.844 139.056 104.162 137.832 104.162C136.872 104.162 136.02 103.952 135.276 103.532C134.532 103.1 133.95 102.5 133.53 101.732C133.11 100.952 132.9 100.046 132.9 99.014ZM143.728 99.014C143.728 97.982 143.938 97.082 144.358 96.314C144.778 95.534 145.36 94.934 146.104 94.514C146.848 94.082 147.7 93.866 148.66 93.866C149.896 93.866 150.916 94.178 151.72 94.802C152.536 95.414 153.082 96.278 153.358 97.394H150.64C150.496 96.962 150.25 96.626 149.902 96.386C149.566 96.134 149.146 96.008 148.642 96.008C147.922 96.008 147.352 96.272 146.932 96.8C146.512 97.316 146.302 98.054 146.302 99.014C146.302 99.962 146.512 100.7 146.932 101.228C147.352 101.744 147.922 102.002 148.642 102.002C149.662 102.002 150.328 101.546 150.64 100.634H153.358C153.082 101.714 152.536 102.572 151.72 103.208C150.904 103.844 149.884 104.162 148.66 104.162C147.7 104.162 146.848 103.952 146.104 103.532C145.36 103.1 144.778 102.5 144.358 101.732C143.938 100.952 143.728 100.046 143.728 99.014ZM164.474 98.798C164.474 99.158 164.45 99.482 164.402 99.77H157.112C157.172 100.49 157.424 101.054 157.868 101.462C158.312 101.87 158.858 102.074 159.506 102.074C160.442 102.074 161.108 101.672 161.504 100.868H164.222C163.934 101.828 163.382 102.62 162.566 103.244C161.75 103.856 160.748 104.162 159.56 104.162C158.6 104.162 157.736 103.952 156.968 103.532C156.212 103.1 155.618 102.494 155.186 101.714C154.766 100.934 154.556 100.034 154.556 99.014C154.556 97.982 154.766 97.076 155.186 96.296C155.606 95.516 156.194 94.916 156.95 94.496C157.706 94.076 158.576 93.866 159.56 93.866C160.508 93.866 161.354 94.07 162.098 94.478C162.854 94.886 163.436 95.468 163.844 96.224C164.264 96.968 164.474 97.826 164.474 98.798ZM161.864 98.078C161.852 97.43 161.618 96.914 161.162 96.53C160.706 96.134 160.148 95.936 159.488 95.936C158.864 95.936 158.336 96.128 157.904 96.512C157.484 96.884 157.226 97.406 157.13 98.078H161.864ZM168.833 95.468C169.157 95.012 169.601 94.634 170.165 94.334C170.741 94.022 171.395 93.866 172.127 93.866C172.979 93.866 173.747 94.076 174.431 94.496C175.127 94.916 175.673 95.516 176.069 96.296C176.477 97.064 176.681 97.958 176.681 98.978C176.681 99.998 176.477 100.904 176.069 101.696C175.673 102.476 175.127 103.082 174.431 103.514C173.747 103.946 172.979 104.162 172.127 104.162C171.395 104.162 170.747 104.012 170.183 103.712C169.631 103.412 169.181 103.034 168.833 102.578V108.752H166.313V94.028H168.833V95.468ZM174.107 98.978C174.107 98.378 173.981 97.862 173.729 97.43C173.489 96.986 173.165 96.65 172.757 96.422C172.361 96.194 171.929 96.08 171.461 96.08C171.005 96.08 170.573 96.2 170.165 96.44C169.769 96.668 169.445 97.004 169.193 97.448C168.953 97.892 168.833 98.414 168.833 99.014C168.833 99.614 168.953 100.136 169.193 100.58C169.445 101.024 169.769 101.366 170.165 101.606C170.573 101.834 171.005 101.948 171.461 101.948C171.929 101.948 172.361 101.828 172.757 101.588C173.165 101.348 173.489 101.006 173.729 100.562C173.981 100.118 174.107 99.59 174.107 98.978ZM181.447 96.098V100.922C181.447 101.258 181.525 101.504 181.681 101.66C181.849 101.804 182.125 101.876 182.509 101.876H183.679V104H182.095C179.971 104 178.909 102.968 178.909 100.904V96.098H177.721V94.028H178.909V91.562H181.447V94.028H183.679V96.098H181.447ZM194.761 98.798C194.761 99.158 194.737 99.482 194.689 99.77H187.399C187.459 100.49 187.711 101.054 188.155 101.462C188.599 101.87 189.145 102.074 189.793 102.074C190.729 102.074 191.395 101.672 191.791 100.868H194.509C194.221 101.828 193.669 102.62 192.853 103.244C192.037 103.856 191.035 104.162 189.847 104.162C188.887 104.162 188.023 103.952 187.255 103.532C186.499 103.1 185.905 102.494 185.473 101.714C185.053 100.934 184.843 100.034 184.843 99.014C184.843 97.982 185.053 97.076 185.473 96.296C185.893 95.516 186.481 94.916 187.237 94.496C187.993 94.076 188.863 93.866 189.847 93.866C190.795 93.866 191.641 94.07 192.385 94.478C193.141 94.886 193.723 95.468 194.131 96.224C194.551 96.968 194.761 97.826 194.761 98.798ZM192.151 98.078C192.139 97.43 191.905 96.914 191.449 96.53C190.993 96.134 190.435 95.936 189.775 95.936C189.151 95.936 188.623 96.128 188.191 96.512C187.771 96.884 187.513 97.406 187.417 98.078H192.151ZM195.952 98.978C195.952 97.97 196.15 97.076 196.546 96.296C196.954 95.516 197.506 94.916 198.202 94.496C198.898 94.076 199.672 93.866 200.524 93.866C201.172 93.866 201.79 94.01 202.378 94.298C202.966 94.574 203.434 94.946 203.782 95.414V90.68H206.338V104H203.782V102.524C203.47 103.016 203.032 103.412 202.468 103.712C201.904 104.012 201.25 104.162 200.506 104.162C199.666 104.162 198.898 103.946 198.202 103.514C197.506 103.082 196.954 102.476 196.546 101.696C196.15 100.904 195.952 99.998 195.952 98.978ZM203.8 99.014C203.8 98.402 203.68 97.88 203.44 97.448C203.2 97.004 202.876 96.668 202.468 96.44C202.06 96.2 201.622 96.08 201.154 96.08C200.686 96.08 200.254 96.194 199.858 96.422C199.462 96.65 199.138 96.986 198.886 97.43C198.646 97.862 198.526 98.378 198.526 98.978C198.526 99.578 198.646 100.106 198.886 100.562C199.138 101.006 199.462 101.348 199.858 101.588C200.266 101.828 200.698 101.948 201.154 101.948C201.622 101.948 202.06 101.834 202.468 101.606C202.876 101.366 203.2 101.03 203.44 100.598C203.68 100.154 203.8 99.626 203.8 99.014Z" fill="black"/>
</svg>

<svg id="Layer_1" data-name="Layer 1" xmlns="http://www.w3.org/2000/svg" viewBox="0 0 272 127"><defs><style>.cls-1{fill:#3a3936;}.cls-2{fill:#343331;}</style></defs><path class="cls-1" d="M152.44,30.17V27.33a5.69,5.69,0,0,0-1.64-4,5.48,5.48,0,0,0-3.94-1.66H124.52a5.52,5.52,0,0,0-4,1.66,5.72,5.72,0,0,0-1.63,4v2.84A8.29,8.29,0,0,0,113,32.66a8.56,8.56,0,0,0-2.46,6V69.83a8.56,8.56,0,0,0,2.46,6,8.29,8.29,0,0,0,5.92,2.49h33.5a8.29,8.29,0,0,0,5.92-2.49,8.55,8.55,0,0,0,2.45-6V38.67a8.55,8.55,0,0,0-2.45-6A8.29,8.29,0,0,0,152.44,30.17Zm-27.92-2.84h22.34V38.67H124.52Zm30.71,42.5a2.85,2.85,0,0,1-.82,2,2.76,2.76,0,0,1-2,.83h-33.5a2.8,2.8,0,0,1-2-.83,2.88,2.88,0,0,1-.81-2V38.67a2.88,2.88,0,0,1,.81-2,2.8,2.8,0,0,1,2-.83v2.84a5.72,5.72,0,0,0,1.63,4,5.52,5.52,0,0,0,4,1.66h22.34a5.48,5.48,0,0,0,3.94-1.66,5.69,5.69,0,0,0,1.64-4V35.83a2.76,2.76,0,0,1,2,.83,2.85,2.85,0,0,1,.82,2Z"/><path class="cls-2" d="M70.9,104.13a6.51,6.51,0,0,1-3.24-.83A6.13,6.13,0,0,1,65.32,101a6.41,6.41,0,0,1-.87-3.33,6.29,6.29,0,0,1,.87-3.29,6.11,6.11,0,0,1,2.34-2.31,6.81,6.81,0,0,1,6.48,0,6.13,6.13,0,0,1,2.32,2.31,6.38,6.38,0,0,1,.86,3.29,6.5,6.5,0,0,1-.86,3.33,6.15,6.15,0,0,1-2.32,2.29A6.57,6.57,0,0,1,70.9,104.13Zm0-2.25a3.83,3.83,0,0,0,2-.51,3.56,3.56,0,0,0,1.35-1.47,4.78,4.78,0,0,0,.49-2.22,4.6,4.6,0,0,0-.49-2.19A3.36,3.36,0,0,0,72.89,94a3.83,3.83,0,0,0-2-.51,4,4,0,0,0-2,.51,3.36,3.36,0,0,0-1.35,1.46A4.72,4.72,0,0,0,67,97.68a4.9,4.9,0,0,0,.49,2.22,3.56,3.56,0,0,0,1.35,1.47A4,4,0,0,0,70.9,101.88Zm10.82-6.3a3.42,3.42,0,0,1,3.06-1.7v2.65h-.67a2.6,2.6,0,0,0-1.8.56A2.57,2.57,0,0,0,81.72,99v5H79.2V94h2.52ZM85.83,99a5.78,5.78,0,0,1,.59-2.68,4.45,4.45,0,0,1,1.66-1.8,4.39,4.39,0,0,1,2.32-.63,4.12,4.12,0,0,1,1.85.43,3.66,3.66,0,0,1,1.41,1.11V90.68h2.55V104H93.66v-1.48a3.39,3.39,0,0,1-1.32,1.19,4.11,4.11,0,0,1-2,.45,4.19,4.19,0,0,1-2.3-.65,4.55,4.55,0,0,1-1.66-1.81A6,6,0,0,1,85.83,99Zm7.84,0a3.16,3.16,0,0,0-.36-1.56,2.43,2.43,0,0,0-1-1,2.61,2.61,0,0,0-2.61,0,2.7,2.7,0,0,0-1,1A3.14,3.14,0,0,0,88.4,99a3.32,3.32,0,0,0,.36,1.58,2.76,2.76,0,0,0,1,1A2.52,2.52,0,0,0,91,102a2.72,2.72,0,0,0,1.31-.34,2.62,2.62,0,0,0,1-1A3.3,3.3,0,0,0,93.67,99Zm14.27-.21a5.74,5.74,0,0,1-.07,1h-7.29a2.46,2.46,0,0,0,.76,1.69,2.31,2.31,0,0,0,1.63.61,2.05,2.05,0,0,0,2-1.2h2.72a4.59,4.59,0,0,1-1.65,2.37,4.83,4.83,0,0,1-3,.92,5.31,5.31,0,0,1-2.59-.63,4.68,4.68,0,0,1-1.79-1.82,6.12,6.12,0,0,1,0-5.41,4.39,4.39,0,0,1,1.77-1.8,5.28,5.28,0,0,1,2.61-.63,5.19,5.19,0,0,1,2.54.61,4.29,4.29,0,0,1,1.74,1.74A5.19,5.19,0,0,1,107.94,98.8Zm-2.61-.72a2,2,0,0,0-.7-1.55,2.42,2.42,0,0,0-1.67-.59,2.33,2.33,0,0,0-1.59.57,2.45,2.45,0,0,0-.77,1.57Zm7-2.5a3.67,3.67,0,0,1,1.26-1.25,3.59,3.59,0,0,1,1.8-.45v2.65h-.66a2.1,2.1,0,0,0-2.4,2.5v5h-2.52V94h2.52Zm8.4,3.4a5.91,5.91,0,0,1,.59-2.68,4.55,4.55,0,0,1,1.64-1.8,4.42,4.42,0,0,1,2.32-.63,4,4,0,0,1,2,.45,4,4,0,0,1,1.35,1.13V94h2.54v10h-2.54v-1.46a3.87,3.87,0,0,1-1.35,1.17,4.14,4.14,0,0,1-2,.45,4.25,4.25,0,0,1-2.31-.65,4.65,4.65,0,0,1-1.64-1.81A6.11,6.11,0,0,1,120.7,99Zm7.85,0a3.16,3.16,0,0,0-.36-1.56,2.49,2.49,0,0,0-1-1,2.57,2.57,0,0,0-1.32-.36,2.49,2.49,0,0,0-1.29.34,2.72,2.72,0,0,0-1,1,3.14,3.14,0,0,0-.36,1.55,3.32,3.32,0,0,0,.36,1.58,2.78,2.78,0,0,0,1,1,2.49,2.49,0,0,0,1.29.36,2.76,2.76,0,0,0,1.32-.34,2.69,2.69,0,0,0,1-1A3.3,3.3,0,0,0,128.55,99Zm4.35,0a5.55,5.55,0,0,1,.63-2.7,4.4,4.4,0,0,1,1.75-1.8,5,5,0,0,1,2.55-.64,4.85,4.85,0,0,1,3.06.93,4.46,4.46,0,0,1,1.64,2.59h-2.72a1.88,1.88,0,0,0-.74-1,2,2,0,0,0-1.26-.38,2.06,2.06,0,0,0-1.71.79,3.42,3.42,0,0,0-.63,2.21,3.49,3.49,0,0,0,.63,2.22,2.1,2.1,0,0,0,1.71.77,1.91,1.91,0,0,0,2-1.37h2.72a4.63,4.63,0,0,1-1.64,2.58,4.84,4.84,0,0,1-3.06,1,5.08,5.08,0,0,1-2.55-.63,4.52,4.52,0,0,1-1.75-1.8A5.63,5.63,0,0,1,132.9,99Zm10.83,0a5.55,5.55,0,0,1,.63-2.7,4.44,4.44,0,0,1,1.74-1.8,5,5,0,0,1,2.56-.64,4.85,4.85,0,0,1,3.06.93,4.46,4.46,0,0,1,1.64,2.59h-2.72a1.88,1.88,0,0,0-.74-1,2,2,0,0,0-1.26-.38,2.06,2.06,0,0,0-1.71.79A3.42,3.42,0,0,0,146.3,99a3.49,3.49,0,0,0,.63,2.22,2.1,2.1,0,0,0,1.71.77,1.91,1.91,0,0,0,2-1.37h2.72a4.63,4.63,0,0,1-1.64,2.58,4.88,4.88,0,0,1-3.06,1,5.14,5.14,0,0,1-2.56-.63,4.57,4.57,0,0,1-1.74-1.8A5.63,5.63,0,0,1,143.73,99Zm20.74-.21a5.74,5.74,0,0,1-.07,1h-7.29a2.46,2.46,0,0,0,.76,1.69,2.32,2.32,0,0,0,1.64.61,2,2,0,0,0,2-1.2h2.72a4.59,4.59,0,0,1-1.65,2.37,4.83,4.83,0,0,1-3,.92,5.31,5.31,0,0,1-2.59-.63,4.58,4.58,0,0,1-1.78-1.82,6.12,6.12,0,0,1,0-5.41A4.36,4.36,0,0,1,157,94.5a5.31,5.31,0,0,1,2.61-.63,5.19,5.19,0,0,1,2.54.61,4.23,4.23,0,0,1,1.74,1.74A5.19,5.19,0,0,1,164.47,98.8Zm-2.61-.72a2,2,0,0,0-.7-1.55,2.42,2.42,0,0,0-1.67-.59,2.33,2.33,0,0,0-1.59.57,2.5,2.5,0,0,0-.77,1.57Zm7-2.61a3.82,3.82,0,0,1,1.33-1.14,4.12,4.12,0,0,1,2-.46,4.3,4.3,0,0,1,2.3.63,4.34,4.34,0,0,1,1.64,1.8,5.58,5.58,0,0,1,.61,2.68,5.86,5.86,0,0,1-.61,2.72,4.43,4.43,0,0,1-1.64,1.81,4.42,4.42,0,0,1-4.25.2,4.29,4.29,0,0,1-1.35-1.13v6.17h-2.52V94h2.52ZM174.11,99a3,3,0,0,0-.38-1.55,2.57,2.57,0,0,0-3.57-1,2.7,2.7,0,0,0-1,1,3.21,3.21,0,0,0-.36,1.56,3.25,3.25,0,0,0,.36,1.57,2.92,2.92,0,0,0,1,1,2.74,2.74,0,0,0,1.3.34,2.47,2.47,0,0,0,1.3-.36,2.61,2.61,0,0,0,1-1A3.16,3.16,0,0,0,174.11,99Zm7.34-2.88v4.82a1,1,0,0,0,.23.74,1.29,1.29,0,0,0,.83.22h1.17V104H182.1q-3.19,0-3.19-3.1V96.1h-1.19V94h1.19V91.56h2.54V94h2.23V96.1Zm13.31,2.7a5.74,5.74,0,0,1-.07,1H187.4a2.49,2.49,0,0,0,.75,1.69,2.35,2.35,0,0,0,1.64.61,2.05,2.05,0,0,0,2-1.2h2.72a4.55,4.55,0,0,1-1.66,2.37,4.78,4.78,0,0,1-3,.92,5.28,5.28,0,0,1-2.59-.63,4.61,4.61,0,0,1-1.79-1.82,6.12,6.12,0,0,1,0-5.41,4.39,4.39,0,0,1,1.77-1.8,5.25,5.25,0,0,1,2.61-.63,5.15,5.15,0,0,1,2.53.61,4.25,4.25,0,0,1,1.75,1.74A5.19,5.19,0,0,1,194.76,98.8Zm-2.61-.72a2,2,0,0,0-.7-1.55,2.46,2.46,0,0,0-1.68-.59,2.31,2.31,0,0,0-1.58.57,2.45,2.45,0,0,0-.77,1.57Zm3.8.9a5.78,5.78,0,0,1,.6-2.68,4.36,4.36,0,0,1,4-2.43,4.16,4.16,0,0,1,1.86.43,3.62,3.62,0,0,1,1.4,1.11V90.68h2.56V104h-2.56v-1.48a3.36,3.36,0,0,1-1.31,1.19,4.14,4.14,0,0,1-2,.45,4.25,4.25,0,0,1-2.31-.65,4.53,4.53,0,0,1-1.65-1.81A6,6,0,0,1,196,99Zm7.85,0a3.16,3.16,0,0,0-.36-1.56,2.43,2.43,0,0,0-1-1,2.57,2.57,0,0,0-1.32-.36,2.51,2.51,0,0,0-1.29.34,2.62,2.62,0,0,0-1,1,3.14,3.14,0,0,0-.36,1.55,3.32,3.32,0,0,0,.36,1.58,2.68,2.68,0,0,0,1,1,2.52,2.52,0,0,0,1.29.36,2.76,2.76,0,0,0,1.32-.34,2.62,2.62,0,0,0,1-1A3.3,3.3,0,0,0,203.8,99Z"/></svg>
